picto/stands-b-de-small.svg

<svg class="color-immutable" width="24" height="24" viewBox="0 0 24 24" fill="none" xmlns="http://www.w3.org/2000/svg"><path d="M0 22.5V1.5C0 0.675 0.675 0 1.5 0H22.5C23.325 0 24 0.675 24 1.5V22.5C24 23.325 23.325 24 22.5 24H1.5C0.675 24 0 23.325 0 22.5Z" fill="#2D327D"/><path d="M7.509 9.757H12.569C13.656 9.757 14.466 9.893 14.999 10.165C15.501 10.421 15.881 10.793 16.137 11.28C16.352 11.69 16.46 12.126 16.46 12.587C16.46 13.1 16.329 13.556 16.068 13.956C15.807 14.356 15.427 14.671 14.93 14.902C15.361 15.046 15.684 15.197 15.899 15.356C16.627 15.889 16.991 16.666 16.991 17.686C16.991 18.291 16.856 18.835 16.587 19.316C16.318 19.798 15.932 20.185 15.43 20.477C14.835 20.826 14.033 21 13.023 21H7.509V9.757ZM9.962 11.687V14.309H12.208C12.731 14.309 13.115 14.247 13.362 14.124C13.818 13.904 14.046 13.524 14.046 12.986C14.046 12.53 13.902 12.199 13.615 11.994C13.328 11.789 12.859 11.686 12.208 11.686H9.962V11.687ZM9.962 15.986V19.07H12.446C13.159 19.07 13.658 18.97 13.946 18.77C14.325 18.498 14.515 18.086 14.515 17.532C14.515 16.871 14.259 16.42 13.746 16.178C13.464 16.05 12.99 15.986 12.323 15.986H9.962Z" fill="white"/><path d="M5.21 3L4.329 3.889L5.293 5.249H4.673L3.991 4.24L3.708 4.523V5.249H3.217V3H3.708V3.931L4.589 3H5.21Z" fill="white"/><path d="M6.96199 5.249H6.50699C6.48699 5.183 6.47799 5.12699 6.47799 5.08099C6.33899 5.22399 6.15899 5.295 5.93799 5.295C5.76599 5.295 5.63099 5.255 5.53499 5.175C5.42399 5.083 5.36899 4.95399 5.36899 4.789C5.36899 4.57899 5.46399 4.433 5.65399 4.352C5.72999 4.319 5.87199 4.289 6.07799 4.261C6.25499 4.237 6.36599 4.21499 6.40899 4.19299C6.45199 4.17099 6.47499 4.12599 6.47499 4.05999C6.47499 3.91299 6.37799 3.83999 6.18299 3.83999C6.07899 3.83999 6.00399 3.85799 5.95599 3.89499C5.90799 3.93199 5.87599 3.99599 5.86099 4.08699H5.43899C5.45299 3.90099 5.52299 3.75999 5.64999 3.66499C5.77699 3.56999 5.95799 3.52299 6.19299 3.52299C6.45199 3.52299 6.64399 3.57599 6.76799 3.68099C6.82599 3.73099 6.86399 3.78299 6.88299 3.83999C6.90199 3.89699 6.91099 3.98599 6.91099 4.10799C6.91099 4.13399 6.90899 4.246 6.90599 4.446C6.90499 4.648 6.90399 4.764 6.90399 4.793C6.90399 4.915 6.90799 5.00399 6.91499 5.06099C6.92199 5.11799 6.93799 5.181 6.96199 5.249ZM6.47099 4.438C6.41399 4.474 6.30899 4.50199 6.15799 4.52299C6.05099 4.53899 5.97399 4.55999 5.92699 4.58599C5.85999 4.62199 5.82699 4.683 5.82699 4.769C5.82699 4.839 5.84899 4.893 5.89299 4.932C5.93699 4.971 5.99899 4.98999 6.07799 4.98999C6.20899 4.98999 6.31499 4.944 6.39599 4.852C6.42499 4.82 6.44499 4.78699 6.45499 4.75299C6.46599 4.71899 6.47099 4.673 6.47099 4.617V4.438Z" fill="white"/><path d="M7.67599 3.574V3.809C7.72799 3.737 7.77699 3.684 7.82199 3.651C7.93299 3.565 8.06599 3.522 8.22199 3.522C8.35899 3.522 8.47599 3.557 8.57099 3.627C8.64699 3.681 8.69999 3.751 8.72999 3.836C8.75999 3.921 8.77599 4.04 8.77599 4.194V5.249H8.33099V4.287C8.33099 4.179 8.32199 4.1 8.30299 4.05C8.28599 4.006 8.25599 3.972 8.21399 3.946C8.16599 3.918 8.11099 3.904 8.04999 3.904C7.98199 3.904 7.92099 3.92 7.86499 3.953C7.80999 3.986 7.76899 4.031 7.74199 4.087C7.71199 4.151 7.69699 4.25 7.69699 4.384V5.248H7.25099V3.574H7.67599Z" fill="white"/><path d="M10.014 3.566V3.881H9.68V4.67C9.68 4.764 9.689 4.824 9.706 4.85C9.732 4.887 9.789 4.905 9.878 4.905C9.913 4.905 9.958 4.902 10.013 4.897V5.254C9.913 5.265 9.82 5.271 9.736 5.271C9.609 5.271 9.512 5.257 9.445 5.228C9.341 5.182 9.277 5.098 9.251 4.976C9.24 4.924 9.234 4.816 9.234 4.651V3.881H8.963V3.566H9.235V3.172H9.68V3.566H10.014Z" fill="white"/><path d="M11.746 4.726C11.722 4.82 11.68 4.909 11.618 4.992C11.47 5.194 11.258 5.295 10.981 5.295C10.731 5.295 10.53 5.216 10.38 5.058C10.306 4.981 10.25 4.888 10.211 4.78C10.169 4.664 10.148 4.543 10.148 4.417C10.148 4.173 10.218 3.968 10.359 3.802C10.516 3.616 10.719 3.524 10.968 3.524C11.169 3.524 11.34 3.586 11.482 3.71C11.584 3.799 11.657 3.909 11.703 4.04C11.749 4.171 11.772 4.335 11.772 4.533H10.602C10.606 4.615 10.619 4.683 10.64 4.738C10.7 4.885 10.815 4.958 10.985 4.958C11.068 4.958 11.136 4.94 11.188 4.903C11.24 4.867 11.283 4.808 11.317 4.727H11.746V4.726ZM11.316 4.232C11.308 4.151 11.289 4.084 11.261 4.031C11.232 3.979 11.192 3.937 11.139 3.906C11.086 3.875 11.029 3.86 10.966 3.86C10.867 3.86 10.785 3.893 10.72 3.96C10.655 4.027 10.617 4.117 10.605 4.232H11.316Z" fill="white"/></svg>

<svg class="color-immutable" width="24" height="24" viewBox="0 0 24 24" fill="none" xmlns="http://www.w3.org/2000/svg"><g clip-path="url(#a)"><path d="M0 22.5v-21C0 .675.675 0 1.5 0h21c.825 0 1.5.675 1.5 1.5v21c0 .825-.675 1.5-1.5 1.5h-21C.675 24 0 23.325 0 22.5Z" fill="#2D327D"/><path d="M7.509 9.757h5.06c1.087 0 1.897.136 2.43.408.502.256.882.628 1.138 1.115.215.41.323.846.323 1.307 0 .513-.131.969-.392 1.369s-.641.715-1.138.946c.431.144.754.295.969.454.728.533 1.092 1.31 1.092 2.33 0 .605-.135 1.149-.404 1.63a3.049 3.049 0 0 1-1.157 1.161c-.595.349-1.397.523-2.407.523H7.509V9.757Zm2.453 1.93v2.622h2.246c.523 0 .907-.062 1.154-.185.456-.22.684-.6.684-1.138 0-.456-.144-.787-.431-.992-.287-.205-.756-.308-1.407-.308H9.962v.001Zm0 4.299v3.084h2.484c.713 0 1.212-.1 1.5-.3.379-.272.569-.684.569-1.238 0-.661-.256-1.112-.769-1.354-.282-.128-.756-.192-1.423-.192H9.962ZM5.21 3l-.881.889.964 1.36h-.62L3.991 4.24l-.283.283v.726h-.491V3h.491v.931L4.589 3h.621ZM6.962 5.249h-.455a.591.591 0 0 1-.029-.168.72.72 0 0 1-.54.214c-.172 0-.307-.04-.403-.12a.474.474 0 0 1-.166-.386c0-.21.095-.356.285-.437.076-.033.218-.063.424-.091.177-.024.288-.046.331-.068.043-.022.066-.067.066-.133 0-.147-.097-.22-.292-.22-.104 0-.179.018-.227.055-.048.037-.08.101-.095.192h-.422a.549.549 0 0 1 .211-.422c.127-.095.308-.142.543-.142.259 0 .451.053.575.158.058.05.096.102.115.159a.92.92 0 0 1 .028.268l-.005.338-.002.347c0 .122.004.211.011.268.007.057.023.12.047.188Zm-.491-.811a.868.868 0 0 1-.313.085.734.734 0 0 0-.231.063c-.067.036-.1.097-.1.183 0 .07.022.124.066.163a.27.27 0 0 0 .185.058.403.403 0 0 0 .318-.138.258.258 0 0 0 .059-.099.46.46 0 0 0 .016-.136v-.179ZM7.676 3.574v.235a.633.633 0 0 1 .546-.287c.137 0 .254.035.349.105a.425.425 0 0 1 .159.209c.03.085.046.204.046.358v1.055h-.445v-.962a.722.722 0 0 0-.028-.237.21.21 0 0 0-.089-.104.356.356 0 0 0-.349.007.312.312 0 0 0-.123.134.738.738 0 0 0-.045.297v.864h-.446V3.574h.425ZM10.014 3.566v.315H9.68v.789c0 .094.009.154.026.18.026.037.083.055.172.055.035 0 .08-.003.135-.008v.357c-.1.011-.193.017-.277.017a.762.762 0 0 1-.291-.043.332.332 0 0 1-.194-.252 1.954 1.954 0 0 1-.017-.325v-.77h-.271v-.315h.272v-.394h.445v.394h.334ZM11.746 4.726a.752.752 0 0 1-.128.266c-.148.202-.36.303-.637.303-.25 0-.451-.079-.601-.237a.775.775 0 0 1-.169-.278 1.058 1.058 0 0 1-.063-.363c0-.244.07-.449.211-.615a.76.76 0 0 1 .609-.278.754.754 0 0 1 .735.516c.046.131.069.295.069.493h-1.17c.004.082.017.15.038.205.06.147.175.22.345.22a.343.343 0 0 0 .203-.055.39.39 0 0 0 .129-.176h.429v-.001Zm-.43-.494a.544.544 0 0 0-.055-.201.334.334 0 0 0-.295-.171.328.328 0 0 0-.246.1.442.442 0 0 0-.115.272h.711Z" fill="#fff"/></g><defs><clipPath id="a"><path fill="#fff" d="M0 0h24v24H0z"/></clipPath></defs></svg>
